humanity-icon-theme/Humanity/mimes/32/text-html.svg

<?xml version="1.0" encoding="UTF-8" standalone="no"?>
<!-- Created with Inkscape (http://www.inkscape.org/) -->

<svg
   xmlns:dc="http://purl.org/dc/elements/1.1/"
   xmlns:cc="http://creativecommons.org/ns#"
   xmlns:rdf="http://www.w3.org/1999/02/22-rdf-syntax-ns#"
   xmlns:svg="http://www.w3.org/2000/svg"
   xmlns="http://www.w3.org/2000/svg"
   xmlns:xlink="http://www.w3.org/1999/xlink"
   xmlns:sodipodi="http://sodipodi.sourceforge.net/DTD/sodipodi-0.dtd"
   xmlns:inkscape="http://www.inkscape.org/namespaces/inkscape"
   width="32px"
   height="32px"
   id="svg3120"
   version="1.1"
   inkscape:version="0.47 r22583"
   sodipodi:docname="text-html.svg">
  <defs
     id="defs3122">
    <linearGradient
       inkscape:collect="always"
       xlink:href="#linearGradient8589"
       id="linearGradient3011"
       gradientUnits="userSpaceOnUse"
       gradientTransform="matrix(0.6371285,0,0,0.6445638,0.8296804,0.74451743)"
       x1="32.892288"
       y1="8.0590115"
       x2="36.358372"
       y2="5.4565363" />
    <linearGradient
       id="linearGradient8589">
      <stop
         id="stop8591"
         style="stop-color:#fefefe;stop-opacity:1"
         offset="0" />
      <stop
         id="stop8593"
         style="stop-color:#cbcbcb;stop-opacity:1"
         offset="1" />
    </linearGradient>
    <filter
       color-interpolation-filters="sRGB"
       height="1.3286875"
       y="-0.16434373"
       width="1.2969251"
       x="-0.14846256"
       id="filter3212">
      <feGaussianBlur
         id="feGaussianBlur3214"
         stdDeviation="0.77391625"
         inkscape:collect="always" />
    </filter>
    <linearGradient
       inkscape:collect="always"
       xlink:href="#linearGradient3211"
       id="linearGradient3015"
       gradientUnits="userSpaceOnUse"
       gradientTransform="matrix(0.6363646,0,0,0.6279076,0.7272514,0.93021583)"
       x1="24"
       y1="1.9999999"
       x2="24"
       y2="46.01725" />
    <linearGradient
       id="linearGradient3211">
      <stop
         id="stop3213"
         style="stop-color:#ffffff;stop-opacity:1"
         offset="0" />
      <stop
         id="stop3215"
         style="stop-color:#ffffff;stop-opacity:0"
         offset="1" />
    </linearGradient>
    <radialGradient
       inkscape:collect="always"
       xlink:href="#XMLID_8_"
       id="radialGradient3018"
       gradientUnits="userSpaceOnUse"
       gradientTransform="matrix(0.2340426,0,0,-0.2542968,1.0212767,32.288672)"
       cx="102"
       cy="112.3047"
       r="139.55859" />
    <radialGradient
       cx="102"
       cy="112.3047"
       r="139.55859"
       id="XMLID_8_"
       gradientUnits="userSpaceOnUse">
      <stop
         id="stop41"
         style="stop-color:#b7b8b9;stop-opacity:1"
         offset="0" />
      <stop
         id="stop47"
         style="stop-color:#ececec;stop-opacity:1"
         offset="0.18851049" />
      <stop
         id="stop49"
         style="stop-color:#fafafa;stop-opacity:0"
         offset="0.25718147" />
      <stop
         id="stop51"
         style="stop-color:#ffffff;stop-opacity:0"
         offset="0.30111277" />
      <stop
         id="stop53"
         style="stop-color:#fafafa;stop-opacity:0"
         offset="0.53130001" />
      <stop
         id="stop55"
         style="stop-color:#ebecec;stop-opacity:0"
         offset="0.84490001" />
      <stop
         id="stop57"
         style="stop-color:#e1e2e3;stop-opacity:0"
         offset="1" />
    </radialGradient>
    <linearGradient
       inkscape:collect="always"
       xlink:href="#linearGradient3600"
       id="linearGradient3021"
       gradientUnits="userSpaceOnUse"
       gradientTransform="matrix(0.6571436,0,0,0.6301241,0.2285531,-0.0896479)"
       x1="25.132275"
       y1="0.98520643"
       x2="25.132275"
       y2="47.013336" />
    <linearGradient
       id="linearGradient3600">
      <stop
         id="stop3602"
         style="stop-color:#f4f4f4;stop-opacity:1"
         offset="0" />
      <stop
         id="stop3604"
         style="stop-color:#dbdbdb;stop-opacity:1"
         offset="1" />
    </linearGradient>
    <linearGradient
       inkscape:collect="always"
       xlink:href="#linearGradient3104"
       id="linearGradient3023"
       gradientUnits="userSpaceOnUse"
       gradientTransform="matrix(0.5306412,0,0,0.5897023,39.269605,-0.7919082)"
       x1="-51.786404"
       y1="50.786446"
       x2="-51.786404"
       y2="2.9062471" />
    <linearGradient
       id="linearGradient3104">
      <stop
         id="stop3106"
         style="stop-color:#aaaaaa;stop-opacity:1"
         offset="0" />
      <stop
         id="stop3108"
         style="stop-color:#c8c8c8;stop-opacity:1"
         offset="1" />
    </linearGradient>
    <radialGradient
       inkscape:collect="always"
       xlink:href="#linearGradient5060"
       id="radialGradient3026"
       gradientUnits="userSpaceOnUse"
       gradientTransform="matrix(0.01566318,0,0,0.00823529,17.610433,26.980566)"
       cx="605.71429"
       cy="486.64789"
       fx="605.71429"
       fy="486.64789"
       r="117.14286" />
    <linearGradient
       id="linearGradient5060">
      <stop
         id="stop5062"
         style="stop-color:#000000;stop-opacity:1"
         offset="0" />
      <stop
         id="stop5064"
         style="stop-color:#000000;stop-opacity:0"
         offset="1" />
    </linearGradient>
    <radialGradient
       inkscape:collect="always"
       xlink:href="#linearGradient5060"
       id="radialGradient3029"
       gradientUnits="userSpaceOnUse"
       gradientTransform="matrix(-0.01566318,0,0,0.00823529,14.389566,26.980566)"
       cx="605.71429"
       cy="486.64789"
       fx="605.71429"
       fy="486.64789"
       r="117.14286" />
    <linearGradient
       id="linearGradient5048">
      <stop
         id="stop5050"
         style="stop-color:#000000;stop-opacity:0"
         offset="0" />
      <stop
         id="stop5056"
         style="stop-color:#000000;stop-opacity:1"
         offset="0.5" />
      <stop
         id="stop5052"
         style="stop-color:#000000;stop-opacity:0"
         offset="1" />
    </linearGradient>
    <linearGradient
       y2="609.50507"
       x2="302.85715"
       y1="366.64789"
       x1="302.85715"
       gradientTransform="matrix(0.04576928,0,0,0.00823529,-0.5423243,26.980549)"
       gradientUnits="userSpaceOnUse"
       id="linearGradient3118"
       xlink:href="#linearGradient5048"
       inkscape:collect="always" />
  </defs>
  <sodipodi:namedview
     id="base"
     pagecolor="#ffffff"
     bordercolor="#666666"
     borderopacity="1.0"
     inkscape:pageopacity="0.0"
     inkscape:pageshadow="2"
     inkscape:zoom="11.197802"
     inkscape:cx="16"
     inkscape:cy="16"
     inkscape:current-layer="layer1"
     showgrid="true"
     inkscape:grid-bbox="true"
     inkscape:document-units="px"
     inkscape:window-width="603"
     inkscape:window-height="478"
     inkscape:window-x="417"
     inkscape:window-y="165"
     inkscape:window-maximized="0" />
  <metadata
     id="metadata3125">
    <rdf:RDF>
      <cc:Work
         rdf:about="">
        <dc:format>image/svg+xml</dc:format>
        <dc:type
           rdf:resource="http://purl.org/dc/dcmitype/StillImage" />
        <dc:title></dc:title>
      </cc:Work>
    </rdf:RDF>
  </metadata>
  <g
     id="layer1"
     inkscape:label="Layer 1"
     inkscape:groupmode="layer">
    <rect
       style="opacity:0.15;fill:url(#linearGradient3118);fill-opacity:1;fill-rule:nonzero;stroke:none;stroke-width:1;marker:none;visibility:visible;display:inline;overflow:visible"
       id="rect2879"
       y="30"
       x="4.9499893"
       height="2"
       width="22.100021" />
    <path
       style="opacity:0.15;fill:url(#radialGradient3029);fill-opacity:1;fill-rule:nonzero;stroke:none;stroke-width:1;marker:none;visibility:visible;display:inline;overflow:visible"
       id="path2881"
       d="m 4.9499887,30.000087 c 0,0 0,1.99989 0,1.99989 -0.806615,0.0038 -1.950002,-0.448074 -1.950002,-1.000074 0,-0.552 0.900121,-0.999816 1.950002,-0.999816 z" />
    <path
       style="opacity:0.15;fill:url(#radialGradient3026);fill-opacity:1;fill-rule:nonzero;stroke:none;stroke-width:1;marker:none;visibility:visible;display:inline;overflow:visible"
       id="path2883"
       d="m 27.050011,30.000087 c 0,0 0,1.99989 0,1.99989 0.806614,0.0038 1.950002,-0.448074 1.950002,-1.000074 0,-0.552 -0.900122,-0.999816 -1.950002,-0.999816 z" />
    <path
       style="fill:url(#linearGradient3021);fill-opacity:1;stroke:url(#linearGradient3023);stroke-width:0.99992174;stroke-linecap:butt;stroke-linejoin:round;stroke-miterlimit:4;stroke-opacity:1;stroke-dasharray:none;stroke-dashoffset:0;display:inline"
       id="path4160"
       d="m 4.499961,1.4999608 c 5.2704843,0 10.540969,0 15.811458,0 0.924556,0.3128002 5.891591,3.8764242 7.188621,6.3438858 0,7.5520644 0,15.1041284 0,22.6561934 -7.666694,0 -15.333386,0 -23.000079,0 0,-9.666694 0,-19.333388 0,-29.0000792 z" />
    <path
       style="fill:url(#radialGradient3018);fill-opacity:1"
       id="path4191"
       d="M 5.2340427,30 C 5.1050853,30 5,29.885821 5,29.745703 L 5,2.2816601 C 5,2.1412889 5.1050853,2.0273643 5.2340427,2.0273643 10.076044,2.0976533 15.441839,1.9222202 20.277954,2.0448653 l 6.653472,5.7695156 0.06857,21.9313231 c 0,0.140118 -0.104852,0.254297 -0.234043,0.254297 l -21.5319143,0 z" />
    <path
       style="opacity:0.6;fill:none;stroke:url(#linearGradient3015);stroke-width:1;stroke-linecap:butt;stroke-linejoin:miter;stroke-miterlimit:4;stroke-opacity:1;stroke-dasharray:none;stroke-dashoffset:0;display:inline"
       id="path2435"
       d="m 26.50004,8.1389756 c 0,7.0312324 0,14.3298294 0,21.3610644 -7.000025,0 -14.000051,0 -21.0000789,0 0,-9.000029 0,-18.000054 0,-27.0000793 4.8121839,0 9.7391359,0 14.5513199,0" />
    <path
       style="opacity:0.4;fill:#000000;fill-opacity:1;fill-rule:evenodd;stroke:none;display:inline;filter:url(#filter3212)"
       id="path12038"
       transform="matrix(0.6385981,0,0,0.6193639,0.7250758,1.4294057)"
       d="m 28.617256,0.92125832 c 4.282522,0 2.15325,8.48317128 2.15325,8.48317128 0,0 10.357642,-1.8023467 10.357642,2.8187444 0,-2.6097233 -11.302304,-10.7285956 -12.510892,-11.30191568 z" />
    <path
       style="fill:url(#linearGradient3011);fill-opacity:1;fill-rule:evenodd;stroke:none;display:inline"
       id="path4474"
       d="m 19.000002,2.0000003 c 2.034888,0 1.491612,4.7454907 1.491612,4.7454907 0,0 6.497818,-0.6076276 6.497818,2.2545089 0,-0.6973655 0.05487,-1.196763 -0.08543,-1.4143758 -1.007905,-1.5633861 -5.36136,-5.0715999 -6.93345,-5.5314084 -0.117643,-0.034408 -0.3785,-0.054215 -0.970551,-0.054215 z" />
    <rect
       style="opacity:0.6;color:#000000;fill:#ffffff;fill-opacity:1;fill-rule:evenodd;stroke:none;stroke-width:3;marker:none;visibility:visible;display:inline;overflow:visible;enable-background:accumulate"
       id="rect2888-1"
       width="1.2412081"
       height="8.8390341"
       x="24.336678"
       y="15.468309"
       transform="matrix(1,0,-0.42524919,0.90507631,0,0)" />
    <path
       style="opacity:0.6;fill:#ffffff;fill-opacity:1;stroke:none"
       d="M 23.141891,17.906667 20.202703,14.226666 21.18243,13 25,17.906667 21.08108,23 20,21.88 23.141891,17.906667 z"
       id="path2882-04-0" />
    <path
       style="opacity:0.6;fill:#ffffff;fill-opacity:1;stroke:none"
       d="M 8.8581085,17.906667 11.797297,14.226666 10.81757,13 7,17.906667 10.91892,23 12,21.88 8.8581085,17.906667 z"
       id="path2882-3" />
    <path
       style="opacity:0.4;fill:#666666;fill-opacity:1;stroke:none"
       d="M 8.8581085,16.906666 11.797297,13.226665 10.81757,11.999999 7,16.906666 10.91892,21.999999 12,20.879999 8.8581085,16.906666 z"
       id="path2882" />
    <rect
       style="opacity:0.4;color:#000000;fill:#000000;fill-opacity:1;fill-rule:evenodd;stroke:none;stroke-width:3;marker:none;visibility:visible;display:inline;overflow:visible;enable-background:accumulate"
       id="rect2888"
       width="1.2412081"
       height="8.8390331"
       x="23.866829"
       y="14.363429"
       transform="matrix(1,0,-0.4252492,0.90507631,0,0)" />
    <path
       style="opacity:0.4;fill:#666666;fill-opacity:1;stroke:none"
       d="M 23.141891,16.906666 20.202703,13.226665 21.18243,11.999999 25,16.906666 21.08108,21.999999 20,20.879999 23.141891,16.906666 z"
       id="path2882-04" />
  </g>
</svg>

<?xml version="1.0" encoding="UTF-8" standalone="no"?>
<!-- Created with Inkscape (http://www.inkscape.org/) -->
<svg id="svg3120" xmlns:rdf="http://www.w3.org/1999/02/22-rdf-syntax-ns#" xmlns="http://www.w3.org/2000/svg" height="32px" width="32px" version="1.1" xmlns:cc="http://creativecommons.org/ns#" xmlns:xlink="http://www.w3.org/1999/xlink" xmlns:dc="http://purl.org/dc/elements/1.1/">
 <defs id="defs3122">
  <linearGradient id="linearGradient3011" y2="5.4565" gradientUnits="userSpaceOnUse" x2="36.358" gradientTransform="matrix(.63713 0 0 .64456 .82968 .74452)" y1="8.059" x1="32.892">
   <stop id="stop8591" style="stop-color:#fefefe" offset="0"/>
   <stop id="stop8593" style="stop-color:#cbcbcb" offset="1"/>
  </linearGradient>
  <filter id="filter3212" color-interpolation-filters="sRGB" width="1.2969" y="-.16434" x="-.14846" height="1.3287">
   <feGaussianBlur id="feGaussianBlur3214" stdDeviation="0.77391625"/>
  </filter>
  <linearGradient id="linearGradient3015" y2="46.017" gradientUnits="userSpaceOnUse" x2="24" gradientTransform="matrix(.63636 0 0 .62791 .72725 .93022)" y1="2" x1="24">
   <stop id="stop3213" style="stop-color:#fff" offset="0"/>
   <stop id="stop3215" style="stop-color:#fff;stop-opacity:0" offset="1"/>
  </linearGradient>
  <radialGradient id="radialGradient3018" gradientUnits="userSpaceOnUse" cy="112.3" cx="102" gradientTransform="matrix(.23404 0 0 -.25430 1.0213 32.289)" r="139.56">
   <stop id="stop41" style="stop-color:#b7b8b9" offset="0"/>
   <stop id="stop47" style="stop-color:#ececec" offset=".18851"/>
   <stop id="stop49" style="stop-color:#fafafa;stop-opacity:0" offset=".25718"/>
   <stop id="stop51" style="stop-color:#fff;stop-opacity:0" offset=".30111"/>
   <stop id="stop53" style="stop-color:#fafafa;stop-opacity:0" offset=".53130"/>
   <stop id="stop55" style="stop-color:#ebecec;stop-opacity:0" offset=".84490"/>
   <stop id="stop57" style="stop-color:#e1e2e3;stop-opacity:0" offset="1"/>
  </radialGradient>
  <linearGradient id="linearGradient3021" y2="47.013" gradientUnits="userSpaceOnUse" x2="25.132" gradientTransform="matrix(.65714 0 0 .63012 .22855 -.089648)" y1=".98521" x1="25.132">
   <stop id="stop3602" style="stop-color:#f4f4f4" offset="0"/>
   <stop id="stop3604" style="stop-color:#dbdbdb" offset="1"/>
  </linearGradient>
  <linearGradient id="linearGradient3023" y2="2.9062" gradientUnits="userSpaceOnUse" x2="-51.786" gradientTransform="matrix(.53064 0 0 .58970 39.27 -.79191)" y1="50.786" x1="-51.786">
   <stop id="stop3106" style="stop-color:#aaa" offset="0"/>
   <stop id="stop3108" style="stop-color:#c8c8c8" offset="1"/>
  </linearGradient>
  <radialGradient id="radialGradient3026" xlink:href="#linearGradient5060" gradientUnits="userSpaceOnUse" cy="486.65" cx="605.71" gradientTransform="matrix(.015663 0 0 .0082353 17.61 26.981)" r="117.14"/>
  <linearGradient id="linearGradient5060">
   <stop id="stop5062" offset="0"/>
   <stop id="stop5064" style="stop-opacity:0" offset="1"/>
  </linearGradient>
  <radialGradient id="radialGradient3029" xlink:href="#linearGradient5060" gradientUnits="userSpaceOnUse" cy="486.65" cx="605.71" gradientTransform="matrix(-.015663 0 0 .0082353 14.39 26.981)" r="117.14"/>
  <linearGradient id="linearGradient3118" y2="609.51" gradientUnits="userSpaceOnUse" y1="366.65" gradientTransform="matrix(.045769 0 0 .0082353 -.54232 26.981)" x2="302.86" x1="302.86">
   <stop id="stop5050" style="stop-opacity:0" offset="0"/>
   <stop id="stop5056" offset=".5"/>
   <stop id="stop5052" style="stop-opacity:0" offset="1"/>
  </linearGradient>
 </defs>
 <metadata id="metadata3125">
  <rdf:RDF>
   <cc:Work rdf:about="">
    <dc:format>image/svg+xml</dc:format>
    <dc:type rdf:resource="http://purl.org/dc/dcmitype/StillImage"/>
    <dc:title/>
   </cc:Work>
  </rdf:RDF>
 </metadata>
 <g id="layer1">
  <rect id="rect2879" style="opacity:.15;fill:url(#linearGradient3118)" height="2" width="22.1" y="30" x="4.95"/>
  <path id="path2881" style="opacity:.15;fill:url(#radialGradient3029)" d="m4.95 30v1.9999c-0.80662 0.0038-1.95-0.44807-1.95-1.0001 0-0.552 0.90012-0.99982 1.95-0.99982z"/>
  <path id="path2883" style="opacity:.15;fill:url(#radialGradient3026)" d="m27.05 30v1.9999c0.80661 0.0038 1.95-0.44807 1.95-1.0001 0-0.552-0.90012-0.99982-1.95-0.99982z"/>
  <path id="path4160" style="stroke-linejoin:round;stroke:url(#linearGradient3023);stroke-width:.99992;fill:url(#linearGradient3021)" d="m4.5 1.5h15.811c0.92456 0.3128 5.8916 3.8764 7.1886 6.3439v22.656h-23v-29z"/>
  <path id="path4191" style="fill:url(#radialGradient3018)" d="m5.234 30c-0.1289 0-0.234-0.114-0.234-0.254v-27.464c0-0.1407 0.1051-0.2546 0.234-0.2546 4.842 0.0703 10.208-0.1052 15.044 0.0175l6.6535 5.7695 0.06857 21.931c0 0.14012-0.10485 0.2543-0.23404 0.2543h-21.532z"/>
  <path id="path2435" style="opacity:.6;stroke:url(#linearGradient3015);fill:none" d="m26.5 8.139v21.361h-21v-27h14.551"/>
  <path id="path12038" d="m28.617 0.92126c4.2825 0 2.1532 8.4832 2.1532 8.4832s10.358-1.8023 10.358 2.8187c0-2.6097-11.302-10.729-12.511-11.302z" style="opacity:.4;fill-rule:evenodd;filter:url(#filter3212)" transform="matrix(.63860 0 0 .61936 .72508 1.4294)"/>
  <path id="path4474" style="fill:url(#linearGradient3011);fill-rule:evenodd" d="m19 2c2.0349 0 1.4916 4.7455 1.4916 4.7455s6.4978-0.60763 6.4978 2.2545c0-0.69737 0.05487-1.1968-0.08543-1.4144-1.0079-1.5634-5.3614-5.0716-6.9334-5.5314-0.11764-0.034408-0.3785-0.054215-0.97055-0.054215z"/>
  <rect id="rect2888-1" style="opacity:.6;color:#000000;fill-rule:evenodd;fill:#fff" transform="matrix(1 0 -.42525 .90508 0 0)" height="8.839" width="1.2412" y="15.468" x="24.337"/>
  <path id="path2882-04-0" style="opacity:.6;fill:#fff" d="m23.142 17.907-2.939-3.68 0.979-1.227 3.818 4.907-3.919 5.093-1.081-1.12 3.142-3.973z"/>
  <path id="path2882-3" style="opacity:.6;fill:#fff" d="m8.8581 17.907 2.9389-3.68-0.979-1.227-3.818 4.907 3.919 5.093 1.081-1.12-3.1419-3.973z"/>
  <path id="path2882" style="opacity:.4;fill:#666" d="m8.8581 16.907 2.9389-3.68-0.979-1.227-3.818 4.907 3.919 5.093 1.081-1.12-3.1419-3.973z"/>
  <rect id="rect2888" style="opacity:.4;color:#000000;fill-rule:evenodd" transform="matrix(1 0 -.42525 .90508 0 0)" height="8.839" width="1.2412" y="14.363" x="23.867"/>
  <path id="path2882-04" style="opacity:.4;fill:#666" d="m23.142 16.907-2.939-3.68 0.979-1.227 3.818 4.907-3.919 5.093-1.081-1.12 3.142-3.973z"/>
 </g>
</svg>
